fs/ribbon_32_regular.svg

<svg viewBox="0 0 32 32" fill="none" xmlns="http://www.w3.org/2000/svg" height="1em" width="1em">
  <path d="M16 2C10.4772 2 6 6.47715 6 12C6 15.2716 7.57111 18.1763 10 20.0007V29C10 29.3603 10.1938 29.6927 10.5073 29.8702C10.8208 30.0477 11.2056 30.0429 11.5145 29.8575L16 27.1662L20.4855 29.8575C20.7944 30.0429 21.1792 30.0477 21.4927 29.8702C21.8062 29.6927 22 29.3603 22 29V20.0007C24.4289 18.1763 26 15.2716 26 12C26 6.47715 21.5228 2 16 2ZM8 12C8 7.58172 11.5817 4 16 4C20.4183 4 24 7.58172 24 12C24 16.4183 20.4183 20 16 20C11.5817 20 8 16.4183 8 12ZM20 21.1679V27.2338L16.5145 25.1425C16.1978 24.9525 15.8022 24.9525 15.4855 25.1425L12 27.2338V21.1679C13.2249 21.7031 14.5778 22 16 22C17.4222 22 18.7751 21.7031 20 21.1679Z" fill="#212121"/>
</svg>

<svg viewBox="0 0 32 32" fill="none" xmlns="http://www.w3.org/2000/svg" height="1em" width="1em">
  <path d="M16 2C10.477 2 6 6.477 6 12a9.985 9.985 0 0 0 4 8v9a1 1 0 0 0 1.514.858L16 27.166l4.485 2.692A1 1 0 0 0 22 29v-9a9.985 9.985 0 0 0 4-8c0-5.523-4.477-10-10-10ZM8 12a8 8 0 1 1 16 0 8 8 0 0 1-16 0Zm12 9.168v6.066l-3.485-2.092a1 1 0 0 0-1.03 0L12 27.234v-6.066A9.966 9.966 0 0 0 16 22a9.966 9.966 0 0 0 4-.832Z" fill="#212121"/>
</svg>
